X:1
T:Title
%%score { 1 | ( 2 3 ) }
L:1/8
Q:1/4=100
M:6/8
K:Eb
V:1 treble nm="Grand Piano"
V:2 bass 
V:3 bass 
V:1
 G3 GF[B,EG] | [EGB]3 [B,EG]3 | [B,E]3 [DF]E[B,DF] | [B,EG]6 | [B,FA]3 .[DFA]2 [DFA] | %5
w: W.~J.~Kirkpatrick * * *|||||
 [EAc]3 [EGB]3 | [B,E]3 [B,DA]2 [B,EG] | [B,DF]6 | [B,EG]3 [EG][DF][EG] | [GB]2 [GB] G3 | c3 edc | %11
w: ||||||
 B2 B .G3 | [Ge]3 [Ge][Bd][Ac] |[M:15/16] [GB]3 [Ge]3/2- [Ge]3 |[M:3/4] [EG]3 [DA]2 [DF] | %15
w: ||||
 [B,E]6 |] %16
w: |
V:2
 [E,B,E]3 EDE, | E,3 E,3 | z3 .[B,,B,]3 | E,6 | D,3 z GB,, | E,3 E,3 | G,3 F,2 E, | B,,6 | %8
 E,3 [E,B,]2 [E,B,] | [E,E]2 [E,E] [E,B,E]3 | z3 .C3 | [E,G,E]2 [E,G,E] .[E,B,E]3 | %12
 [E,B,]3 [E,B,]2 [E,E] |[M:15/16] [E,E]3 [E,B,]3/2- [E,B,]3 |[M:3/4] [B,,B,]3 [B,,F,]2 [B,,A,] | %15
 [E,G,]6 |] %16
V:3
 z3 .[E,B,]3 | x6 | G,,3 z CB,, | x6 | z3 .B,,3 | x6 | x6 | x6 | x6 | x6 | %10
 [A,E]3 [A,E]-[A,B,E][A,E] | x6 | x6 |[M:15/16] x15/2 |[M:3/4] x6 | x6 |] %16

